build/img/landings/complex/banner-decor.svg

<svg width="998" height="1085" fill="none" xmlns="http://www.w3.org/2000/svg"><path fill-rule="evenodd" clip-rule="evenodd" d="M975.73 460.071v42.656c0 3.748-5.622 3.748-5.622 0v-28.569c0-3.748 5.622-3.748 5.622 0 0 3.747-5.622 3.747-5.622 0v-14.087H716.947l-.533 55.299h25.83v2.519c.414-.24.894-.376 1.406-.376h388.48l7.77-7.113v-50.329H975.73zm150.26 63.063H743.65c-.512 0-.992-.137-1.406-.376v43.592h378.576l.18-16.513v-22.135l4.99-4.568zm-383.746 48.838v10.259h-25.83l.884 61.251c4.191-4.762 8.871-4.762 14.04 0a24.543 24.543 0 012.168 2.274H1121l15.84-7.027v-56.498h-16.19l.11-10.259H742.244zm286.416 150.416l90.09-.038 2.09-70.973H737.198c2.084 4.043 3.649 8.962 4.695 14.757v46.041l.351 10.334 98.379-.041v35.594l-166.19-8.132c-19.101-.934-35.181-14.609-39.173-33.312-45.916-215.163-42.151-337.998 11.295-368.504 97.034-55.385 105.571 70.068 152.763 59.566 47.192-10.502 6.162-133.466 105.557-143.503 99.395-10.036 74.137 57.972 108.155 107.348 34.01 49.376 56.96-68.351 153.73-68.003 107.55.388 104.23 76.457 104.23 148.71l-30.01 306.014c-1.06 10.816-10.42 18.897-21.27 18.365l-191.54-9.372.49-44.851zm-90.549.039l1.303-.001a2.811 2.811 0 012.16 2.728l.759 301.606 23.983-35.433a2.812 2.812 0 014.656 3.151l-28.326 41.852 45.362-.02a2.798 2.798 0 012.812 2.8c0 1.56-1.257 2.82-2.809 2.82l-98.492.05a2.81 2.81 0 11-.003-5.62l46.772-.03-33.301-41.4a2.811 2.811 0 014.381-3.524l29.346 36.484-.761-302.722a2.81 2.81 0 012.158-2.741zM222.532 298.41l45.655-106.25 17.533-6.745-37.951 93.865 61.922-88.729a2.81 2.81 0 114.61 3.217l-57.637 82.589 92.022-80.627a2.81 2.81 0 113.705 4.228l-96.572 84.613 145.264-104.308 86.125 182.38-195.945 50.262c-9.826 15.729-15.884 24.481-18.536 26.707-3.302 2.77-7.133 4.734-11.313 5.288-5.509.731-11.007-1.101-16.145-5.851-6.299-5.826-9.301-12.672-8.897-20.332-8.073.566-15.32-2.065-21.565-7.841-6.817-6.303-9.747-13.476-8.575-21.267l-11.81-13.017a28.11 28.11 0 01-4.17-31.76c8.504-16.505 17.218-29.632 26.165-39.387a168.704 168.704 0 006.115-7.035zm477.425 684.531l-194.912 1.89 4.566 47.059h54.049a2.812 2.812 0 012.811 2.81c0 1.55-1.259 2.81-2.811 2.81h-41.916c8.516 2.34 14.673 4.83 18.523 7.51 7.518 5.24 6.944 11.94-1.098 17.66-7.482 5.32-14.953 5.69-21.778.93-6.113-4.26-11.626-12.58-16.706-24.98l-82.54 14.01a35.82 35.82 0 00-27.448 22.44l-1.516 3.94h270.054l65.527-57.59-24.805-38.489zm-200.555 1.944l-65.127.632-39.937-41.931 72.107-129.23a2.811 2.811 0 10-4.909-2.74l-71.257 127.708-.032-.033-.228.5-21.412 38.374-35.701 104.575a2.805 2.805 0 01-2.66 1.9H2.813c-1.973 0-3.332-1.98-2.622-3.82l2.988-7.76a41.472 41.472 0 0131.753-25.97l74.395-12.62c-12.156-3.49-20.525-7.01-25.202-10.65-7.233-5.63-6.31-12.29 2.02-17.58 7.751-4.92 15.231-4.9 21.798.21 5.852 4.55 10.901 13.09 15.311 25.63l35.82-46.563h-52.775l119.393-217.586a2.81 2.81 0 004.613-.602l139.929-277.79a2.811 2.811 0 00-5.021-2.529L225.284 764.8a2.804 2.804 0 00-.288.991l-71.908-75.498 139.057-275.966 133.071 1.476 138.998-1.476v144.517l-63.283 138.393 193.425 268.03a2.807 2.807 0 011.674 1.203l6.731 10.444 4.3 5.958-.458.005 24.196 37.543a2.82 2.82 0 01-.507 3.64l-68.142 59.88c-.513.45-1.173.7-1.856.7H385.086c-1.974 0-3.333-1.98-2.623-3.82l2.988-7.76a41.473 41.473 0 0131.753-25.97l74.394-12.62c-12.157-3.49-20.525-7.01-25.203-10.65-7.233-5.63-6.31-12.29 2.02-17.58 7.751-4.92 15.231-4.9 21.798.21 4.954 3.86 9.333 10.57 13.236 20.14l-4.047-41.705zm-139.245.632h-193.99l-35.672 46.373h50.895a2.812 2.812 0 012.811 2.81c0 1.55-1.259 2.81-2.811 2.81h-41.916c8.516 2.34 14.673 4.83 18.523 7.51 7.518 5.24 6.944 11.94-1.098 17.66-7.483 5.32-14.953 5.69-21.778.93-6.113-4.26-11.626-12.58-16.707-24.98l-82.542 14.01a35.821 35.821 0 00-27.447 22.44l-1.516 3.94h321.327l31.921-93.503zm-255.666 25.373c-4.61-3.59-9.507-3.6-15.333.1-5.247 3.33-5.524 5.32-1.58 8.39 4.661 3.63 14.435 7.44 29.17 11.3-3.765-9.8-7.891-16.4-12.257-19.79zm33.845 48.11c4.79 3.34 9.682 3.1 15.306-.9 5.066-3.6 5.238-5.61 1.14-8.47-4.846-3.37-14.806-6.67-29.723-9.75 4.273 9.58 8.739 15.96 13.277 19.12zm348.425-48.11c-4.609-3.59-9.507-3.6-15.333.1-5.247 3.33-5.524 5.32-1.581 8.39 4.662 3.63 14.436 7.44 29.171 11.3-3.765-9.8-7.891-16.4-12.257-19.79zm33.845 48.11c4.79 3.34 9.682 3.1 15.306-.9 5.066-3.6 5.238-5.61 1.14-8.47-4.846-3.37-14.806-6.67-29.723-9.75 4.273 9.58 8.738 15.96 13.277 19.12zm320.017-122.629H727.056c-16.832 0-30.971-12.659-32.826-29.389-2.418-21.816 4.45-38.854 20.603-51.115 34.211-25.965 51.925 10.048 65.815 6.462 13.89-3.586-5.614-49.19 18.803-64.468 24.416-15.277 30.875 15.507 40.2 31.209.33.558.654 1.044.972 1.463v105.838zm186.297-56.88c1.16-.191 2.35-1.121 3.66-3.019 9.2-13.348 15.56-39.515 39.64-26.529 24.08 12.987 27.82 54.351 41.52 57.399 13.7 3.048 37.13-41.39 70.87-19.319 18.16 11.879 21.85 31.542 11.07 58.989a33.03 33.03 0 01-30.79 20.953l-136.94-.183.97-88.291zM386.359 85.367c1.964-.338 3.724-2.1 5.345-5.713a2.81 2.81 0 115.129 2.301c-1.981 4.415-4.595 7.336-7.803 8.51l21.463 40.982c15.903 13.742 30.369 16.144 44.02 7.614 14.197-8.871 30.417-14.927 48.641-18.172L442.145 17.065a23.184 23.184 0 00-3.477-4.532l-27.799 14.129-40.81 8.94a32.398 32.398 0 00-.039 16.868 41.37 41.37 0 016.814-4.9c4.179-2.412 8.577-4.034 13.181-4.857 5.731-1.025 11.207 2.79 12.231 8.521a10.54 10.54 0 01-2.317 8.65c-3.015 3.576-6.619 6.573-10.798 8.986-4.178 2.413-8.576 4.034-13.181 4.858a10.508 10.508 0 01-8.027-1.832L356.98 89.323l24.599-8.032a2.81 2.81 0 013.362 1.368l1.418 2.708zm-15.558-18.362c-.849-2.521.007-5.315 2.236-6.708 2.633-1.645 6.184-.71 7.932 2.087a6.18 6.18 0 01.935 3.79 36.436 36.436 0 004.417-2.172c3.619-2.09 6.718-4.668 9.31-7.742a4.918 4.918 0 00-4.626-8.013c-3.958.707-7.741 2.102-11.36 4.192-3.62 2.09-6.719 4.668-9.311 7.742a4.922 4.922 0 00.467 6.824zm-6.539.149a10.545 10.545 0 011.334-10.038c-6.448-17.667 1.021-37.812 18.137-46.777a38.116 38.116 0 017.666-3.01l23.182-6.314a28.81 28.81 0 0132.411 13.202l63.082 107.353c1.007 1.713-.034 3.902-1.998 4.202-19.154 2.927-36.007 8.948-50.584 18.057-16.06 10.035-33.304 7.066-51.093-8.493a2.803 2.803 0 01-.64-.812l-24.695-47.151-29.722 9.704c-2.5.816-4.651-1.94-3.253-4.166l16.173-25.757zm58.615 13.487a2.811 2.811 0 11-.879-5.552c8.816-1.397 14.831-9.676 13.435-18.492-1.397-8.816-9.676-14.831-18.492-13.435a2.811 2.811 0 01-.879-5.552c11.882-1.882 23.041 6.225 24.923 18.108 1.882 11.882-6.225 23.041-18.108 24.923zm57.485 215.114a2.812 2.812 0 01-5.537.976l-4.314-24.467a2.81 2.81 0 115.536-.976l4.315 24.467zm22.997 78.987a2.811 2.811 0 01-5.136 2.286c-9.724-21.846-3.479-42.747 18.291-62.125a2.811 2.811 0 113.738 4.199c-20.059 17.854-25.542 36.208-16.893 55.64zm4.092-94.13a2.81 2.81 0 01-5.597.529l-4.081-43.177a2.812 2.812 0 015.596-.529l4.082 43.177zm-243.21 42.83l-52.177 65.637a.672.672 0 01-.034.041 2.637 2.637 0 01-.037.213c-1.344 6.3.78 12.006 6.63 17.416 5.894 5.451 12.625 7.41 20.461 5.96a2.78 2.78 0 011.704.217l38.356-53.396c.601-9.686-.398-17.239-2.918-22.647-2.18-4.676-6.161-9.166-11.985-13.441zm-4.173-3.785l-10.139-23.67a9.84 9.84 0 00-17.058-1.831c-3.537 4.969-7.641 9.998-12.311 15.089-8.576 9.349-17.02 22.071-25.31 38.162a22.485 22.485 0 003.336 25.408l10.247 11.294 51.235-64.452zm22.34 44.965l-38.798 54.011a2.796 2.796 0 01-1.649 1.098c-.097 5.674 2.246 10.678 7.125 15.19 3.93 3.635 7.768 4.913 11.589 4.407 2.988-.397 5.889-1.884 8.438-4.023 2.678-2.247 11.797-16.014 26.596-40.352-.511-7.704-1.622-13.35-3.26-16.864-1.491-3.2-4.847-7.721-10.041-13.467zm-46.218-58.163a2.81 2.81 0 01-2.14-5.198c6.857-2.822 12.738-.314 16.765 6.872 4.058 7.242 3.09 13.37-3.114 17.053a2.81 2.81 0 11-2.87-4.834c3.33-1.977 3.759-4.69 1.08-9.471-2.711-4.836-5.658-6.094-9.721-4.422zm19.926 39.773a2.81 2.81 0 11-2.139-5.199c6.857-2.821 12.737-.314 16.765 6.872 4.058 7.242 3.089 13.371-3.114 17.054a2.811 2.811 0 01-2.87-4.834c3.33-1.977 3.759-4.691 1.08-9.471-2.711-4.837-5.659-6.094-9.722-4.422zm19.989 37.689a2.812 2.812 0 01-2.139-5.199c6.857-2.822 12.737-.314 16.765 6.872 4.058 7.242 3.089 13.37-3.114 17.053a2.811 2.811 0 11-2.87-4.833c3.33-1.977 3.759-4.691 1.08-9.472-2.711-4.836-5.659-6.093-9.722-4.421zm602.112 226.548c0-3.748 5.622-3.748 5.622 0v21.553c0 3.748-5.622 3.748-5.622 0v-43.107c0-3.747 5.622-3.747 5.622 0v21.554c0 3.747-5.622 3.747-5.622 0z" fill="#fff"/><path fill-rule="evenodd" clip-rule="evenodd" d="M370.663 202.322l-17.674-3.109c.246-.544.347-1.003.302-1.376-.083-.699-.249-1.737-1.25-2.359-1.356-.842-2.62-.374-4.175 1.005-.34.302-.925.808-1.754 1.518l-31.324-5.528a2.91 2.91 0 00-.243-1.487 2.735 2.735 0 00-.355-.584l15.702-32.568a30.212 30.212 0 0116.994-15.311l145.399-52.277 85.734 37.916a33.027 33.027 0 0117.475 18.367l97.99 255.216-123.256 24.414-15.552-10.287H289.375l1.892-2.981 148.881-38.034c6.455 4.986 12.873 9.447 18.206 12.474 21.06 11.952 50.961 22.376 64.946 9.231 6.176-5.805 11.659-14.018 16.449-24.64a57.626 57.626 0 004.332-33.034l-18.39-111.898c-.968-5.893-6.53-9.885-12.423-8.916a10.806 10.806 0 00-6.215 3.361c-2.551 2.781-4.799 7.27-6.745 13.468-2.824-6.257-10.185-9.04-16.442-6.216a12.434 12.434 0 00-3.524 2.391c-2.157 2.084-3.799 4.338-4.927 6.763-2.933 6.306-4.085 16.832-3.456 31.578l-38.075-22.831a5.826 5.826 0 00-1.851-.718l-30.949-65.606-30.421 22.058zm346.286 369.651h433.571v14.757H716.949V631h433.571v14.757H703.597v-73.784h13.352zm419.891-54.279H703.597v-14.586h433.243v-43.036H703.597v-14.585h446.923v72.378h-13.68v-.171zm-394.594 14.577v-9.136h408.274v9.136H934.786v24.946h215.734v9.135H742.246v-34.081zM1121 666.135v59.027H726.084v-14.756h107.513v-44.271H726.084v-14.756H1121v14.756z" fill="#7B61FF"/></svg>

<svg width="998" height="1085" viewBox="0 0 998 1085" fill="none" xmlns="http://www.w3.org/2000/svg">
<path fill-rule="evenodd" clip-rule="evenodd" d="M975.73 460.071V474.158V502.727C975.73 506.475 970.108 506.475 970.108 502.727V474.158C970.108 470.41 975.73 470.41 975.73 474.158C975.73 477.905 970.108 477.905 970.108 474.158V460.071H716.947L716.414 515.37H742.244V517.889C742.658 517.649 743.138 517.513 743.65 517.513H1132.13L1139.9 510.4V460.071H975.73ZM1125.99 523.134H743.65C743.138 523.134 742.658 522.997 742.244 522.758V566.35H1120.82L1121 549.837V527.702L1125.99 523.134ZM742.244 571.972V582.231H716.414L717.298 643.482C721.489 638.72 726.169 638.72 731.338 643.482C732.096 644.18 732.819 644.938 733.506 645.756H1121L1136.84 638.729V582.231H1120.65L1120.76 571.972H742.244ZM1028.66 722.388L1118.75 722.35L1120.84 651.377H737.198C739.282 655.42 740.847 660.339 741.893 666.134V712.175L742.244 722.509L840.623 722.468V758.062L674.433 749.93C655.332 748.996 639.252 735.321 635.26 716.618C589.344 501.455 593.109 378.62 646.555 348.114C743.589 292.729 752.126 418.182 799.318 407.68C846.51 397.178 805.48 274.214 904.875 264.177C1004.27 254.141 979.012 322.149 1013.03 371.525C1047.04 420.901 1069.99 303.174 1166.76 303.522C1274.31 303.91 1270.99 379.979 1270.99 452.232L1240.98 758.246C1239.92 769.062 1230.56 777.143 1219.71 776.611L1028.17 767.239L1028.66 722.388ZM938.111 722.427L939.414 722.426C940.65 722.719 941.571 723.828 941.574 725.154L942.333 1026.76L966.316 991.327C967.186 990.042 968.934 989.705 970.22 990.575C971.505 991.445 971.842 993.193 970.972 994.478L942.646 1036.33L988.008 1036.31C989.56 1036.3 990.82 1037.56 990.82 1039.11C990.82 1040.67 989.563 1041.93 988.011 1041.93L889.519 1041.98C887.966 1041.98 886.706 1040.72 886.706 1039.17C886.706 1037.62 887.963 1036.36 889.516 1036.36L936.288 1036.33L902.987 994.93C902.015 993.72 902.206 991.951 903.416 990.978C904.626 990.005 906.395 990.197 907.368 991.406L936.714 1027.89L935.953 725.168C935.949 723.838 936.87 722.722 938.111 722.427ZM222.532 298.41L268.187 192.16L285.72 185.415L247.769 279.28L309.691 190.551C310.579 189.278 312.331 188.966 313.604 189.854C314.877 190.743 315.189 192.495 314.301 193.768L256.664 276.357L348.686 195.73C349.854 194.707 351.629 194.824 352.652 195.992C353.675 197.16 353.558 198.935 352.391 199.958L255.819 284.571L401.083 180.263L487.208 362.643L291.263 412.905C281.437 428.634 275.379 437.386 272.727 439.612C269.425 442.382 265.594 444.346 261.414 444.9C255.905 445.631 250.407 443.799 245.269 439.049C238.97 433.223 235.968 426.377 236.372 418.717C228.299 419.283 221.052 416.652 214.807 410.876C207.99 404.573 205.06 397.4 206.232 389.609L194.422 376.592C186.546 367.911 184.884 355.252 190.252 344.832C198.756 328.327 207.47 315.2 216.417 305.445C218.584 303.083 220.622 300.738 222.532 298.41ZM699.957 982.941L505.045 984.831L509.611 1031.89H563.66C565.212 1031.89 566.471 1033.15 566.471 1034.7C566.471 1036.25 565.212 1037.51 563.66 1037.51H521.744C530.26 1039.85 536.417 1042.34 540.267 1045.02C547.785 1050.26 547.211 1056.96 539.169 1062.68C531.687 1068 524.216 1068.37 517.391 1063.61C511.278 1059.35 505.765 1051.03 500.685 1038.63L418.145 1052.64C405.675 1054.75 395.244 1063.28 390.697 1075.08L389.181 1079.02H659.235L724.762 1021.43L699.957 982.941ZM499.402 984.885L434.275 985.517L394.338 943.586L466.445 814.356C467.202 813 466.716 811.288 465.36 810.531C464.005 809.775 462.293 810.261 461.536 811.616L390.279 939.324L390.247 939.291L390.019 939.791L368.607 978.165L332.906 1082.74C332.518 1083.88 331.448 1084.64 330.246 1084.64H2.81344C0.840157 1084.64 -0.518878 1082.66 0.190598 1080.82L3.17927 1073.06C8.43979 1059.41 20.5071 1049.54 34.9322 1047.09L109.327 1034.47C97.1705 1030.98 88.8025 1027.46 84.1254 1023.82C76.8916 1018.19 77.8152 1011.53 86.1453 1006.24C93.8963 1001.32 101.376 1001.34 107.943 1006.45C113.795 1011 118.844 1019.54 123.254 1032.08L159.074 985.517H106.299L225.692 767.931C225.922 768.19 226.203 768.41 226.53 768.574C227.916 769.273 229.606 768.715 230.305 767.329L370.234 489.539C370.932 488.153 370.375 486.463 368.988 485.764C367.602 485.066 365.912 485.624 365.213 487.01L225.284 764.8C225.123 765.119 225.029 765.455 224.996 765.791L153.088 690.293L292.145 414.327L425.216 415.803L564.214 414.327V558.844L500.931 697.237L694.356 965.267C695.038 965.439 695.64 965.864 696.03 966.47L702.761 976.914L707.061 982.872L706.603 982.877L730.799 1020.42C731.553 1021.59 731.337 1023.14 730.292 1024.06L662.15 1083.94C661.637 1084.39 660.977 1084.64 660.294 1084.64H385.086C383.112 1084.64 381.753 1082.66 382.463 1080.82L385.451 1073.06C390.712 1059.41 402.779 1049.54 417.204 1047.09L491.598 1034.47C479.441 1030.98 471.073 1027.46 466.395 1023.82C459.162 1018.19 460.085 1011.53 468.415 1006.24C476.166 1001.32 483.646 1001.34 490.213 1006.45C495.167 1010.31 499.546 1017.02 503.449 1026.59L499.402 984.885ZM360.157 985.517H166.167L130.495 1031.89H181.39C182.942 1031.89 184.201 1033.15 184.201 1034.7C184.201 1036.25 182.942 1037.51 181.39 1037.51H139.474C147.99 1039.85 154.147 1042.34 157.997 1045.02C165.515 1050.26 164.941 1056.96 156.899 1062.68C149.416 1068 141.946 1068.37 135.121 1063.61C129.008 1059.35 123.495 1051.03 118.414 1038.63L35.8724 1052.64C23.4032 1054.75 12.9722 1063.28 8.42496 1075.08L6.90871 1079.02H328.236L360.157 985.517ZM104.491 1010.89C99.8818 1007.3 94.9842 1007.29 89.1582 1010.99C83.9111 1014.32 83.6344 1016.31 87.5771 1019.38C92.2394 1023.01 102.013 1026.82 116.748 1030.68C112.983 1020.88 108.857 1014.28 104.491 1010.89ZM138.336 1059C143.126 1062.34 148.018 1062.1 153.642 1058.1C158.708 1054.5 158.88 1052.49 154.782 1049.63C149.936 1046.26 139.976 1042.96 125.059 1039.88C129.332 1049.46 133.798 1055.84 138.336 1059ZM486.761 1010.89C482.152 1007.3 477.254 1007.29 471.428 1010.99C466.181 1014.32 465.904 1016.31 469.847 1019.38C474.509 1023.01 484.283 1026.82 499.018 1030.68C495.253 1020.88 491.127 1014.28 486.761 1010.89ZM520.606 1059C525.396 1062.34 530.288 1062.1 535.912 1058.1C540.978 1054.5 541.15 1052.49 537.052 1049.63C532.206 1046.26 522.246 1042.96 507.329 1039.88C511.602 1049.46 516.067 1055.84 520.606 1059ZM840.623 936.371H727.056C710.224 936.371 696.085 923.712 694.23 906.982C691.812 885.166 698.68 868.128 714.833 855.867C749.044 829.902 766.758 865.915 780.648 862.329C794.538 858.743 775.034 813.139 799.451 797.861C823.867 782.584 830.326 813.368 839.651 829.07C839.981 829.628 840.305 830.114 840.623 830.533V936.371ZM1026.92 879.491C1028.08 879.3 1029.27 878.37 1030.58 876.472C1039.78 863.124 1046.14 836.957 1070.22 849.943C1094.3 862.93 1098.04 904.294 1111.74 907.342C1125.44 910.39 1148.87 865.952 1182.61 888.023C1200.77 899.902 1204.46 919.565 1193.68 947.012C1188.71 959.667 1176.49 967.983 1162.89 967.965L1025.95 967.782L1026.92 879.491ZM386.359 85.3668C388.323 85.0291 390.083 83.2667 391.704 79.6539C392.339 78.2375 394.003 77.6046 395.419 78.2401C396.835 78.8756 397.468 80.5389 396.833 81.9553C394.852 86.3696 392.238 89.2906 389.03 90.4659L410.493 131.447C426.396 145.189 440.862 147.591 454.513 139.061C468.71 130.19 484.93 124.134 503.154 120.889L442.145 17.0651C441.159 15.3878 439.988 13.8718 438.668 12.5328L410.869 26.6619L370.059 35.6019C368.587 41.0287 368.514 46.8451 370.02 52.4696C372.088 50.6324 374.36 48.9989 376.834 47.5705C381.013 45.1579 385.411 43.5362 390.015 42.713C395.746 41.6885 401.222 45.5035 402.246 51.2341C402.798 54.3184 401.948 57.4881 399.929 59.8835C396.914 63.4596 393.31 66.4575 389.131 68.8701C384.953 71.2827 380.555 72.9044 375.95 73.7276C373.021 74.2513 370.158 73.5105 367.923 71.8959C365.158 76.2982 361.511 82.1072 356.98 89.3228L381.579 81.2911C382.883 80.8652 384.304 81.4434 384.941 82.659L386.359 85.3668ZM370.801 67.0052C369.952 64.4835 370.808 61.6897 373.037 60.2972C375.67 58.652 379.221 59.5861 380.969 62.3836C381.712 63.5724 382.01 64.9063 381.904 66.1737C383.403 65.5602 384.875 64.8363 386.321 64.0016C389.94 61.9118 393.039 59.3335 395.631 56.2598C396.573 55.1419 396.97 53.6627 396.712 52.2234C396.234 49.5491 393.679 47.7688 391.005 48.2469C387.047 48.9544 383.264 50.3492 379.645 52.439C376.025 54.5288 372.926 57.1071 370.334 60.1808C369.392 61.2987 368.996 62.7779 369.253 64.2172C369.453 65.3365 370.017 66.2992 370.801 67.0052ZM364.262 67.154C364.023 66.5349 363.84 65.8841 363.719 65.2065C363.21 62.3567 363.896 59.4339 365.596 57.1164C359.148 39.4493 366.617 19.3038 383.733 10.3393C386.172 9.06183 388.743 8.05251 391.399 7.32898L414.581 1.01516C427.126 -2.40155 440.405 3.00732 446.992 14.2171L510.074 121.57C511.081 123.283 510.04 125.472 508.076 125.772C488.922 128.699 472.069 134.72 457.492 143.829C441.432 153.864 424.188 150.895 406.399 135.336C406.137 135.107 405.92 134.832 405.759 134.524L381.064 87.3729L351.342 97.0773C348.842 97.8934 346.691 95.1373 348.089 92.9106L364.262 67.154ZM422.877 80.641C421.344 80.8839 419.904 79.8378 419.661 78.3045C419.418 76.7713 420.465 75.3315 421.998 75.0886C430.814 73.6923 436.829 65.4134 435.433 56.5971C434.036 47.7809 425.757 41.7659 416.941 43.1623C415.408 43.4051 413.968 42.3591 413.725 40.8258C413.482 39.2925 414.528 37.8527 416.062 37.6099C427.944 35.7278 439.103 43.835 440.985 55.7177C442.867 67.6004 434.76 78.759 422.877 80.641ZM480.362 295.755C480.631 297.284 479.61 298.741 478.082 299.011C476.553 299.281 475.095 298.26 474.825 296.731L470.511 272.264C470.242 270.735 471.262 269.277 472.791 269.008C474.32 268.738 475.778 269.759 476.047 271.288L480.362 295.755ZM503.359 374.742C503.99 376.16 503.352 377.822 501.934 378.453C500.516 379.084 498.855 378.446 498.223 377.028C488.499 355.182 494.744 334.281 516.514 314.903C517.674 313.87 519.451 313.974 520.483 315.133C521.515 316.293 521.411 318.07 520.252 319.102C500.193 336.956 494.71 355.31 503.359 374.742ZM507.451 280.612C507.597 282.157 506.462 283.528 504.917 283.674C503.371 283.82 502 282.686 501.854 281.141L497.773 237.964C497.627 236.419 498.761 235.048 500.307 234.901C501.852 234.755 503.223 235.89 503.369 237.435L507.451 280.612ZM264.241 323.442L212.064 389.079C212.053 389.093 212.042 389.107 212.03 389.12C212.021 389.191 212.008 389.262 211.993 389.333C210.649 395.633 212.773 401.339 218.623 406.749C224.517 412.2 231.248 414.159 239.084 412.709C239.695 412.596 240.282 412.687 240.788 412.926L279.144 359.53C279.745 349.844 278.746 342.291 276.226 336.883C274.046 332.207 270.065 327.717 264.241 323.442ZM260.068 319.657L249.929 295.987C249.218 294.327 248.063 292.894 246.591 291.846C242.165 288.695 236.022 289.729 232.871 294.156C229.334 299.125 225.23 304.154 220.56 309.245C211.984 318.594 203.54 331.316 195.25 347.407C190.955 355.743 192.284 365.869 198.586 372.815L208.833 384.109L260.068 319.657ZM282.408 364.622L243.61 418.633C243.196 419.21 242.603 419.583 241.961 419.731C241.864 425.405 244.207 430.409 249.086 434.921C253.016 438.556 256.854 439.834 260.675 439.328C263.663 438.931 266.564 437.444 269.113 435.305C271.791 433.058 280.91 419.291 295.709 394.953C295.198 387.249 294.087 381.603 292.449 378.089C290.958 374.889 287.602 370.368 282.408 364.622ZM236.19 306.459C234.754 307.05 233.112 306.365 232.521 304.93C231.93 303.494 232.615 301.851 234.05 301.261C240.907 298.439 246.788 300.947 250.815 308.133C254.873 315.375 253.905 321.503 247.701 325.186C246.367 325.979 244.642 325.539 243.849 324.204C243.057 322.869 243.496 321.145 244.831 320.352C248.161 318.375 248.59 315.662 245.911 310.881C243.2 306.045 240.253 304.787 236.19 306.459ZM256.116 346.232C254.681 346.823 253.038 346.138 252.447 344.702C251.857 343.266 252.542 341.624 253.977 341.033C260.834 338.212 266.714 340.719 270.742 347.905C274.8 355.147 273.831 361.276 267.628 364.959C266.293 365.751 264.569 365.312 263.776 363.977C262.983 362.642 263.423 360.917 264.758 360.125C268.088 358.148 268.517 355.434 265.838 350.654C263.127 345.817 260.179 344.56 256.116 346.232ZM276.105 383.921C274.67 384.511 273.027 383.826 272.436 382.391C271.846 380.955 272.531 379.313 273.966 378.722C280.823 375.9 286.703 378.408 290.731 385.594C294.789 392.836 293.82 398.964 287.617 402.647C286.282 403.44 284.558 403 283.765 401.666C282.973 400.331 283.412 398.606 284.747 397.814C288.077 395.837 288.506 393.123 285.827 388.342C283.116 383.506 280.168 382.249 276.105 383.921ZM878.217 610.469C878.217 606.721 883.839 606.721 883.839 610.469V632.022C883.839 635.77 878.217 635.77 878.217 632.022V610.469V588.915C878.217 585.168 883.839 585.168 883.839 588.915V610.469C883.839 614.216 878.217 614.216 878.217 610.469Z" fill="white"/>
<path fill-rule="evenodd" clip-rule="evenodd" d="M370.663 202.322L352.989 199.213C353.235 198.669 353.336 198.21 353.291 197.837C353.208 197.138 353.042 196.1 352.041 195.478C350.685 194.636 349.421 195.104 347.866 196.483C347.526 196.785 346.941 197.291 346.112 198.001L314.788 192.473C314.835 191.941 314.754 191.445 314.545 190.986C314.449 190.773 314.331 190.579 314.19 190.402L329.892 157.834C333.331 150.7 339.434 145.202 346.886 142.523L492.285 90.2461L578.019 128.162C586.056 131.716 592.344 138.326 595.494 146.529L693.484 401.745L570.228 426.159L554.676 415.872H289.375L291.267 412.891L440.148 374.857C446.603 379.843 453.021 384.304 458.354 387.331C479.414 399.283 509.315 409.707 523.3 396.562C529.476 390.757 534.959 382.544 539.749 371.922C544.414 361.578 545.921 350.086 544.081 338.888L525.691 226.99C524.723 221.097 519.161 217.105 513.268 218.074C510.878 218.466 508.69 219.65 507.053 221.435C504.502 224.216 502.254 228.705 500.308 234.903C497.484 228.646 490.123 225.863 483.866 228.687C482.563 229.275 481.371 230.084 480.342 231.078C478.185 233.162 476.543 235.416 475.415 237.841C472.482 244.147 471.33 254.673 471.959 269.419L433.884 246.588C433.295 246.235 432.67 245.998 432.033 245.87L401.084 180.264L370.663 202.322ZM716.949 571.973H1150.52V586.73H716.949V631H1150.52V645.757H716.949H703.597V571.973H716.949ZM1136.84 517.694H703.597V503.108H1136.84V460.072H703.597V445.487H1136.84H1150.52V517.865H1136.84V517.694ZM742.246 532.271V523.135H1150.52V532.271H934.786V557.217H1150.52V566.352H742.246V557.217V532.271ZM1121 666.135V725.162H858.192H726.084V710.406H833.597V666.135H726.084V651.379H1121V666.135Z" fill="#7B61FF"/>
</svg>
